X: 184
T:London Lasses, The
M:C|
L:1/8
Q:1/2=80
R:reel
Z:Lesl Harker, 8/4/2000
K:G
D3E|:G3B d2Bd|eaag EGG2|~G3B d2Bd|egdB AGFA|
~G3B d2Bd|eaag efga|b2ag egfa|1 gedB AGE2:|2 gedB AGG2||
|:~g3d edBc|dG~G2 AGB2|~g3d edBc|dBGA BAa2|
~g2fa efge|dBB2 dega|b2ag egfa|1 gedB AGG2:|2 gedB AGFA|G8||
<end>
<start>
